X: 15443
T: Glen Of Aherlow, The
R: reel
M: 4/4
K: Edorian
B2AF BFAF|~E3F EDB,D|B2AF BFAF|DFAF FEEA|
B2AF BFAF|~E3F EDB,A,|B,E~E2 DEFA|BdAF FEE2:|
eB (3BBB egfe|fd (3ddd Adfd|eB~B2 egfe|dBAF FEEA|
eB (3BBB egfe|fd (3ddd Adfd|~B3d egfe|dBAF FEEA:|

